svg/toy_brick_remove.svg

<svg xmlns="http://www.w3.org/2000/svg" viewBox="0 0 24 24"><path d="M19 6V5a2 2 0 0 0-2-2h-2a2 2 0 0 0-2 2v1h-2V5a2 2 0 0 0-2-2H7a2 2 0 0 0-2 2v1H3v14h10.09a5.5 5.5 0 0 1-.09-1 6 6 0 0 1 8-5.66V6m1.54 10.88L20.41 19l2.13 2.12-1.42 1.42L19 20.41l-2.12 2.13-1.42-1.42L17.59 19l-2.13-2.12 1.42-1.42L19 17.59l2.12-2.13Z"/></svg>

<?xml version="1.0" encoding="UTF-8"?><!DOCTYPE svg PUBLIC "-//W3C//DTD SVG 1.1//EN" "http://www.w3.org/Graphics/SVG/1.1/DTD/svg11.dtd"><svg xmlns="http://www.w3.org/2000/svg" xmlns:xlink="http://www.w3.org/1999/xlink" version="1.1" id="mdi-toy-brick-remove" width="24" height="24" viewBox="0 0 24 24"><path d="M19 6V5A2 2 0 0 0 17 3H15A2 2 0 0 0 13 5V6H11V5A2 2 0 0 0 9 3H7A2 2 0 0 0 5 5V6H3V20H13.09A5.47 5.47 0 0 1 13 19A6 6 0 0 1 21 13.34V6M22.54 16.88L20.41 19L22.54 21.12L21.12 22.54L19 20.41L16.88 22.54L15.46 21.12L17.59 19L15.46 16.88L16.88 15.46L19 17.59L21.12 15.46Z" /></svg>
